X: 0
T: God Bless You, Merry Gentlemen
Z: English Traditional
Z: Copyright © 2005 by Douglas D. Anderson
Z: Released To The Public Domain
L: 1/4
M: 2/2
Q: 1/4=115
V: P1 name="Staff"
%%MIDI program 1 19
K: F
[V: P1]  A | D A A G | F E D C | D E F G | A2 A | D A A G | F E D C | D E F G | A3 A | =B G A B | c d A E | D D (D/ E/) F | G2 F G | (A d) c d | (A G) F E | D2 F D | G2 F G | (A d) c d | (A G) F E | D3|]
w: God bless you, mer- ry gen- tle men, Let no- thing you dis- may; Re- mem ber Christ our Sa- vi our Was born on Christ- mas Day To save poor souls from Sa- tan's power, That long have gone_ a- stray Which brings ti-_ dings of com-_ fort and joy, Joy and joy, Which brings ti-_ dings of com-_ fort and joy.

